components/ui-node-icon/src/recipe/recipe.medium.svg

<svg width="24" height="24" viewBox="0 0 24 24" fill="none" xmlns="http://www.w3.org/2000/svg">
  <path fill-rule="evenodd" clip-rule="evenodd" d="M3.87578 11.1056C3.3818 10.8586 2.78113 11.0588 2.53414 11.5528C2.28715 12.0468 2.48737 12.6475 2.98135 12.8945L11.5528 17.1802C11.8343 17.3209 12.1657 17.3209 12.4472 17.1802L21.0186 12.8945C21.5126 12.6475 21.7128 12.0468 21.4658 11.5528C21.2189 11.0588 20.6182 10.8586 20.1242 11.1056L12 15.1677L3.87578 11.1056ZM3.87578 15.1056C3.3818 14.8586 2.78113 15.0588 2.53414 15.5528C2.28715 16.0468 2.48737 16.6475 2.98135 16.8945L11.5528 21.1802C11.8343 21.3209 12.1657 21.3209 12.4472 21.1802L21.0186 16.8945C21.5126 16.6475 21.7128 16.0468 21.4658 15.5528C21.2189 15.0588 20.6182 14.8586 20.1242 15.1056L12 19.1677L3.87578 15.1056Z" fill="var(--tbl--colors--icons--clean--secondary)"/>
  <path d="M12.4472 3.22361C12.1657 3.08284 11.8343 3.08284 11.5528 3.22361L3.78886 7.10557C3.05181 7.4741 3.05181 8.5259 3.78885 8.89443L11.5528 12.7764C11.8343 12.9172 12.1657 12.9172 12.4472 12.7764L20.2111 8.89443C20.9482 8.5259 20.9482 7.4741 20.2111 7.10557L12.4472 3.22361Z" fill="var(--tbl--colors--icons--clean--primary)"/>
</svg>

<svg xmlns="http://www.w3.org/2000/svg" width="24" height="24" fill="none" viewBox="0 0 24 24">
  <path fill="var(--tbl--colors--icons--clean--secondary)" fill-rule="evenodd" d="M3.876 11.106a1 1 0 1 0-.895 1.789l8.572 4.285a1 1 0 0 0 .894 0l8.572-4.285a1 1 0 0 0-.895-1.79L12 15.169l-8.124-4.062Zm0 4a1 1 0 1 0-.895 1.789l8.572 4.285a1 1 0 0 0 .894 0l8.572-4.285a1 1 0 0 0-.895-1.79L12 19.169l-8.124-4.062Z" clip-rule="evenodd"/>
  <path fill="var(--tbl--colors--icons--clean--primary)" d="M12.447 3.224a1 1 0 0 0-.894 0L3.789 7.106a1 1 0 0 0 0 1.788l7.764 3.882a1 1 0 0 0 .894 0l7.764-3.882a1 1 0 0 0 0-1.788l-7.764-3.882Z"/>
</svg>
